SVG_Azure_Grouped/Dynamics 365/Application Core HR.svg

<?xml version="1.0" encoding="UTF-8" standalone="no"?>
<!-- Generated by Microsoft Visio, SVG Export Application Core HR.svg Page-1 -->

<svg
   xmlns:dc="http://purl.org/dc/elements/1.1/"
   xmlns:cc="http://creativecommons.org/ns#"
   xmlns:rdf="http://www.w3.org/1999/02/22-rdf-syntax-ns#"
   xmlns:svg="http://www.w3.org/2000/svg"
   xmlns="http://www.w3.org/2000/svg"
   xmlns:sodipodi="http://sodipodi.sourceforge.net/DTD/sodipodi-0.dtd"
   xmlns:inkscape="http://www.inkscape.org/namespaces/inkscape"
   width="0.74805373in"
   height="0.78747642in"
   viewBox="0 0 53.859837 56.698443"
   xml:space="preserve"
   class="st6"
   version="1.1"
   id="svg68"
   sodipodi:docname="Application Core HR.svg"
   style="font-size:12px;overflow:visible;color-interpolation-filters:sRGB;fill:none;fill-rule:evenodd;stroke-linecap:square;stroke-miterlimit:3"
   inkscape:version="0.92.5 (2060ec1f9f, 2020-04-08)"><metadata
   id="metadata72"><rdf:RDF><cc:Work
       rdf:about=""><dc:format>image/svg+xml</dc:format><dc:type
         rdf:resource="http://purl.org/dc/dcmitype/StillImage" /></cc:Work></rdf:RDF></metadata><sodipodi:namedview
   pagecolor="#ffffff"
   bordercolor="#666666"
   borderopacity="1"
   objecttolerance="10"
   gridtolerance="10"
   guidetolerance="10"
   inkscape:pageopacity="0"
   inkscape:pageshadow="2"
   inkscape:window-width="640"
   inkscape:window-height="480"
   id="namedview70"
   showgrid="false"
   inkscape:zoom="1.8365233"
   inkscape:cx="35.905406"
   inkscape:cy="18.900351"
   inkscape:window-x="0"
   inkscape:window-y="0"
   inkscape:window-maximized="0"
   inkscape:current-layer="svg68" />
	<style
   type="text/css"
   id="style2">
	<![CDATA[
		.st1 {fill:url(#grad0-7);stroke:none;stroke-linecap:butt;stroke-width:0.75}
		.st2 {fill:#000000;fill-opacity:0.24;stroke:none;stroke-linecap:butt;stroke-width:0.75}
		.st3 {fill:#000000;fill-opacity:0.32;stroke:none;stroke-linecap:butt;stroke-width:0.75}
		.st4 {fill:url(#grad0-15);stroke:none;stroke-linecap:butt;stroke-width:0.75}
		.st5 {fill:url(#grad0-23);stroke:none;stroke-linecap:butt;stroke-width:0.75}
		.st6 {fill:none;fill-rule:evenodd;font-size:12px;overflow:visible;stroke-linecap:square;stroke-miterlimit:3}
	]]>
	</style>

	<defs
   id="Patterns_And_Gradients">
		<linearGradient
   id="grad0-7"
   x1="-1.7562066e-06"
   y1="40.433419"
   x2="54.614718"
   y2="40.433419"
   gradientTransform="scale(0.98618109,1.0140126)"
   gradientUnits="userSpaceOnUse">
			<stop
   offset="0"
   stop-color="#8661c5"
   stop-opacity="1"
   id="stop4" />
			<stop
   offset="1"
   stop-color="#5c428b"
   stop-opacity="1"
   id="stop6" />
		</linearGradient>
		<linearGradient
   id="grad0-15"
   x1="0"
   y1="56.031749"
   x2="39.011193"
   y2="56.031749"
   gradientTransform="scale(0.98612723,1.0140679)"
   gradientUnits="userSpaceOnUse">
			<stop
   offset="0"
   stop-color="#cd9ef0"
   stop-opacity="1"
   id="stop9" />
			<stop
   offset="1"
   stop-color="#9f75d3"
   stop-opacity="1"
   id="stop11" />
		</linearGradient>
		<linearGradient
   id="grad0-23"
   x1="0"
   y1="30.121609"
   x2="34.449581"
   y2="30.121609"
   gradientTransform="scale(0.66996462,1.4926161)"
   gradientUnits="userSpaceOnUse">
			<stop
   offset="0"
   stop-color="#f1d9ff"
   stop-opacity="1"
   id="stop14" />
			<stop
   offset="1"
   stop-color="#e4b4ff"
   stop-opacity="1"
   id="stop16" />
		</linearGradient>
	</defs>
	<g
   id="g66"
   transform="translate(-5.3859275,-5.6658545)">
		<title
   id="title20">Page-1</title>
		<g
   id="group21396-1"
   transform="translate(5.38583,-34.0157)">
			<title
   id="title22">Application Core HR.21396</title>
			<g
   id="group21397-2">
				<title
   id="title24">Sheet.21397</title>
				<g
   id="group21398-3">
					<title
   id="title26">Sheet.21398</title>
					<g
   id="shape21399-4"
   transform="translate(0,-1.31844)">
						<title
   id="title28">Sheet.21399</title>
						<path
   d="m 0,93.74 a 2.56474,2.63694 -180 0 0 2.56,2.64 h 48.73 a 2.56474,2.63694 -180 0 0 2.57,-2.64 V 43.64 A 2.56474,2.63694 -180 0 0 51.29,41 H 2.56 A 2.56474,2.63694 -180 0 0 0,43.64 Z"
   class="st1"
   id="path30"
   inkscape:connector-curvature="0"
   style="fill:url(#grad0-7);stroke:none;stroke-width:0.75;stroke-linecap:butt" />
					</g>
					<g
   id="shape21400-8"
   transform="translate(0,-1.06794)">
						<title
   id="title33">Sheet.21400</title>
						<path
   d="m 0,56.82 h 35.91 c 1.41,0 2.56,1.19 2.56,2.64 V 96.38 H 0 Z"
   class="st2"
   id="path35"
   inkscape:connector-curvature="0"
   style="fill:#000000;fill-opacity:0.23999999;stroke:none;stroke-width:0.75;stroke-linecap:butt" />
					</g>
					<g
   id="shape21401-10"
   transform="translate(0,-1.06794)">
						<title
   id="title38">Sheet.21401</title>
						<path
   d="m 0,56.82 h 35.91 c 1.41,0 2.56,1.19 2.56,2.64 V 96.38 H 0 Z"
   class="st3"
   id="path40"
   inkscape:connector-curvature="0"
   style="fill:#000000;fill-opacity:0.31999996;stroke:none;stroke-width:0.75;stroke-linecap:butt" />
					</g>
					<g
   id="shape21402-12"
   transform="translate(0,-1.31844)">
						<title
   id="title43">Sheet.21402</title>
						<path
   d="m 0,56.82 h 35.91 c 1.41,0 2.56,1.19 2.56,2.64 V 96.38 H 0 Z"
   class="st4"
   id="path45"
   inkscape:connector-curvature="0"
   style="fill:url(#grad0-15);stroke:none;stroke-width:0.75;stroke-linecap:butt" />
					</g>
					<g
   id="shape21403-16"
   transform="translate(0,-1.06787)">
						<title
   id="title48">Sheet.21403</title>
						<path
   d="m 11.54,68.69 c 6.37,0 11.54,-5.31 11.54,-11.87 0,-6.55 -5.17,-11.86 -11.54,-11.86 C 5.17,44.96 0,50.27 0,56.82 0,63.38 5.17,68.69 11.54,68.69 Z m 8.98,3.96 H 0 v 23.73 h 23.08 v -21.1 c 0,-1.45 -1.15,-2.63 -2.56,-2.63 z"
   class="st2"
   id="path50"
   inkscape:connector-curvature="0"
   style="fill:#000000;fill-opacity:0.23999999;stroke:none;stroke-width:0.75;stroke-linecap:butt" />
					</g>
					<g
   id="shape21404-18">
						<title
   id="title53">Sheet.21404</title>
						<path
   d="m 11.54,68.69 c 6.37,0 11.54,-5.31 11.54,-11.87 0,-6.55 -5.17,-11.86 -11.54,-11.86 C 5.17,44.96 0,50.27 0,56.82 0,63.38 5.17,68.69 11.54,68.69 Z m 8.98,3.96 H 0 v 23.73 h 23.08 v -21.1 c 0,-1.45 -1.15,-2.63 -2.56,-2.63 z"
   class="st3"
   id="path55"
   inkscape:connector-curvature="0"
   style="fill:#000000;fill-opacity:0.31999996;stroke:none;stroke-width:0.75;stroke-linecap:butt" />
					</g>
					<g
   id="shape21405-20"
   transform="translate(0,-1.31844)">
						<title
   id="title58">Sheet.21405</title>
						<path
   d="m 11.54,68.69 c 6.37,0 11.54,-5.31 11.54,-11.87 0,-6.55 -5.17,-11.86 -11.54,-11.86 C 5.17,44.96 0,50.27 0,56.82 0,63.38 5.17,68.69 11.54,68.69 Z m 8.98,3.96 H 0 v 23.73 h 23.08 v -21.1 c 0,-1.45 -1.15,-2.63 -2.56,-2.63 z"
   class="st5"
   id="path60"
   inkscape:connector-curvature="0"
   style="fill:url(#grad0-23);stroke:none;stroke-width:0.75;stroke-linecap:butt" />
					</g>
				</g>
			</g>
		</g>
	</g>
</svg>

<?xml version="1.0" encoding="UTF-8" standalone="no"?>
<!DOCTYPE svg PUBLIC "-//W3C//DTD SVG 1.1//EN" "http://www.w3.org/Graphics/SVG/1.1/DTD/svg11.dtd">
<!-- Generated by Microsoft Visio, SVG Export Application Core HR.svg Page-1 -->
<svg xmlns="http://www.w3.org/2000/svg" xmlns:xlink="http://www.w3.org/1999/xlink" xmlns:ev="http://www.w3.org/2001/xml-events"
		width="0.897638in" height="1.33858in" viewBox="0 0 64.6299 96.378" xml:space="preserve" color-interpolation-filters="sRGB"
		class="st6">
	<style type="text/css">
	<![CDATA[
		.st1 {fill:url(#grad0-7);stroke:none;stroke-linecap:butt;stroke-width:0.75}
		.st2 {fill:#000000;fill-opacity:0.24;stroke:none;stroke-linecap:butt;stroke-width:0.75}
		.st3 {fill:#000000;fill-opacity:0.32;stroke:none;stroke-linecap:butt;stroke-width:0.75}
		.st4 {fill:url(#grad0-15);stroke:none;stroke-linecap:butt;stroke-width:0.75}
		.st5 {fill:url(#grad0-23);stroke:none;stroke-linecap:butt;stroke-width:0.75}
		.st6 {fill:none;fill-rule:evenodd;font-size:12px;overflow:visible;stroke-linecap:square;stroke-miterlimit:3}
	]]>
	</style>

	<defs id="Patterns_And_Gradients">
		<linearGradient id="grad0-7" x1="0" y1="0" x2="1" y2="0" gradientTransform="rotate(46.974378928845 0.5 0.5)">
			<stop offset="0" stop-color="#8661c5" stop-opacity="1"/>
			<stop offset="1" stop-color="#5c428b" stop-opacity="1"/>
		</linearGradient>
		<linearGradient id="grad0-15" x1="0" y1="0" x2="1" y2="0" gradientTransform="rotate(72.007911481828 0.5 0.5)">
			<stop offset="0" stop-color="#cd9ef0" stop-opacity="1"/>
			<stop offset="1" stop-color="#9f75d3" stop-opacity="1"/>
		</linearGradient>
		<linearGradient id="grad0-23" x1="0" y1="0" x2="1" y2="0" gradientTransform="rotate(15.116583819209 0.5 0.5)">
			<stop offset="0" stop-color="#f1d9ff" stop-opacity="1"/>
			<stop offset="1" stop-color="#e4b4ff" stop-opacity="1"/>
		</linearGradient>
	</defs>
	<g>
		<title>Page-1</title>
		<g id="group20921-1" transform="translate(5.38583,-34.0157)">
			<title>Application Core HR.20921</title>
			<g id="group20922-2">
				<title>Sheet.20922</title>
				<g id="group20923-3">
					<title>Sheet.20923</title>
					<g id="shape20924-4" transform="translate(0,-1.31844)">
						<title>Sheet.20924</title>
						<path d="M0 93.74 A2.56474 2.63694 -180 0 0 2.56 96.38 L51.29 96.38 A2.56474 2.63694 -180 0 0 53.86 93.74
									 L53.86 43.64 A2.56474 2.63694 -180 0 0 51.29 41 L2.56 41 A2.56474 2.63694 -180 0 0 -0 43.64
									 L0 93.74 Z" class="st1"/>
					</g>
					<g id="shape20925-8" transform="translate(2.75779E-13,-1.06794)">
						<title>Sheet.20925</title>
						<path d="M0 56.82 L35.91 56.82 C37.32 56.82 38.47 58.01 38.47 59.46 L38.47 96.38 L0 96.38 L0 56.82 Z"
								class="st2"/>
					</g>
					<g id="shape20926-10" transform="translate(2.75779E-13,-1.06794)">
						<title>Sheet.20926</title>
						<path d="M0 56.82 L35.91 56.82 C37.32 56.82 38.47 58.01 38.47 59.46 L38.47 96.38 L0 96.38 L0 56.82 Z"
								class="st3"/>
					</g>
					<g id="shape20927-12" transform="translate(2.75779E-13,-1.31844)">
						<title>Sheet.20927</title>
						<path d="M0 56.82 L35.91 56.82 C37.32 56.82 38.47 58.01 38.47 59.46 L38.47 96.38 L0 96.38 L0 56.82 Z"
								class="st4"/>
					</g>
					<g id="shape20928-16" transform="translate(-2.65787E-13,-1.06787)">
						<title>Sheet.20928</title>
						<path d="M11.54 68.69 C17.91 68.69 23.08 63.38 23.08 56.82 C23.08 50.27 17.91 44.96 11.54 44.96 C5.17 44.96
									 0 50.27 0 56.82 C0 63.38 5.17 68.69 11.54 68.69 ZM20.52 72.65 L0 72.65 L0 96.38 L23.08 96.38
									 L23.08 75.28 C23.08 73.83 21.93 72.65 20.52 72.65 Z" class="st2"/>
					</g>
					<g id="shape20929-18">
						<title>Sheet.20929</title>
						<path d="M11.54 68.69 C17.91 68.69 23.08 63.38 23.08 56.82 C23.08 50.27 17.91 44.96 11.54 44.96 C5.17 44.96
									 0 50.27 0 56.82 C0 63.38 5.17 68.69 11.54 68.69 ZM20.52 72.65 L0 72.65 L0 96.38 L23.08 96.38
									 L23.08 75.28 C23.08 73.83 21.93 72.65 20.52 72.65 Z" class="st3"/>
					</g>
					<g id="shape20930-20" transform="translate(-2.65787E-13,-1.31844)">
						<title>Sheet.20930</title>
						<path d="M11.54 68.69 C17.91 68.69 23.08 63.38 23.08 56.82 C23.08 50.27 17.91 44.96 11.54 44.96 C5.17 44.96
									 0 50.27 0 56.82 C0 63.38 5.17 68.69 11.54 68.69 ZM20.52 72.65 L0 72.65 L0 96.38 L23.08 96.38
									 L23.08 75.28 C23.08 73.83 21.93 72.65 20.52 72.65 Z" class="st5"/>
					</g>
				</g>
			</g>
		</g>
	</g>
</svg>
